X:029
T:Elizabeth Donald
C:Adam Rennie (?)
S:78rpm record
Z:Nigel Gatherer
M:6/8
L:1/8
K:A
e|c2A AGA|F2A E2A|F2A E2A|GAB B2e|c2A AGA|F2A E2f|
dBG EFG|A3 A2:|c/B/|A2c cBc|A2c E3|F2B BcB|G2B e3|
c2A AGA|F2A D2f|dBG EFG|A3 A2 c/B/|A2c cBc|A2c E3|
F2B BcB|G2B e3|AGA cBA|FDE F2f|dBG EFG|A3 A2|]
<end>
<start>
